X: 442
T: James My Thousand Treasures - 1st Setting
N: Irish title: seamus mo .mile stor
R: jig, air
%S: s:2 b:12(6+6)
B: O'Neill's 1850 #442
O: J.O'Neill
Z: henrik.norbeck@mailbox.swipnet.se
N: 3-bar phrases.
Q: "With expression"
M: 6/8
L: 1/8
K: F
  (A/B/) | (c>dc) (cA).f | d2(c/A/) G2F | F3- Fz ||
|          c | f>ef def  | gec      d2c | c3- cz ||
| (3(c/d/e/) | f>ef def  | gec      d2e | f3- f2 ||
| (A/B/) | (c>dc) (cA).f | d2(c/A/) G2F | F3- Fz |]
